!!!OTL@@DE: Die Fahnenwacht
!!!COM: Lindpaintner, Peter von
!!!ODT: <1848
!!!OMD: Maestoso
!!!LYR: Claudius, Matthias
!!!LDT: 1772
!!!OCL: Erk, Ludwig
!!!GCO: Deutscher Liederschatz, Band 1
**kern	**kern	**kern
*staff3	*staff2	*staff1
*Ipiano	*Ipiano	*Ivox
*>[I,A,A]	*>[I,A,A]	*>[I,A,A]
*>I	*>I	*>I
*clefF4	*clefG2	*clefG2
*k[]	*k[]	*k[]
*C:	*C:	*C:
*met(C)	*met(C)	*met(C)
*M4/4	*M4/4	*M4/4
*MM76	*MM76	*MM76
16GG/LK	16G/ 16g/LK	16r
8.GG/	8.G/ 8.g/	4r
16GG/Jk	16g/Jk	.
=1	=1	=1
8.CC/ 8.C/L	8.c/ 8.cc/L	1r
16GG/Jk	16g/Jk	.
4..EE/ 4..E/	4..e/ 4..ee/	.
16C/LK	16cc\LK	.
8.GG/ 8.G/	8.g\ 8.gg\	.
16E/Jk	16ee\Jk	.
=2	=2	=2
8C\ 8c\	8cc\ 8ccc\	2r
8r	8r	.
8GG/ 8BB/ 8D/ 8G/	8dd\ 8gg\ 8bb\ 8ddd\	.
8r	8r	.
8CC/ 8GG/ 8C/	8ee\ 8gg\ 8ccc\ 8eee\	4r
8r	8r	.
8r	8r	8r
=!|:	=!|:	=!|:
*>A	*>A	*>A
8r	8r	8g/
=3	=3	=3
8.r	8.r	4.cc\
16C/	16G/ 16c/ 16e/	.
8C/	8G/ 8c/ 8e/	.
8r	8r	8g/
8.r	8.r	4.e/
16C/	16G/ 16c/ 16e/	.
8C/	8G/ 8c/ 8e/	.
8r	8r	8a/
=4	=4	=4
8EE/	8G/ 8c/ 8g/	8.g/
8r	8r	.
.	.	16e/
*^	*	*
8.E/	8.AA\L	8.A/ 8.c/	8.c/
16G/	16GG\Jk	16B/ 16d/	16d/
8.G/	8.CC\L	8.c/ 8.e/	4e/
16G/	16C\Jk	16c/ 16e/	.
4G/	4C\	4c/ 4e/	8r
.	.	.	8e/
*v	*v	*	*
=5	=5	=5
8GG/ 8D/	8G/ 8B/ 8f/	8.f/
8r	8r	.
.	.	16c#/
8GG/ 8D/	8G/ 8B/ 8f/	8.d/
8r	8r	.
.	.	16e/
8GG/ 8D/	8G/ 8B/ 8f/	8.f/
8r	8r	.
.	.	16d/
8GG/ 8D/	8G/ 8B/ 8f/	8.b^\
8r	8r	.
.	.	16a/
=6	=6	=6
8.r	8.r	(4.g^/
16BB/LK	16G/ 16d/ 16f/LK	.
8.BB/	8.G/ 8.d/ 8.f/	.
.	.	8f/)
16BB/Jk	16G/ 16d/ 16f/Jk	.
8.C/L	2G/ 2c/ 2e/	4e/
16C/Jk	.	.
8.EE/L	.	8r
.	.	8g/
16GG/Jk	.	.
=7	=7	=7
8.CC/L	8.r	4.cc\
16C/Jk	16G/ 16c/ 16e/	.
8C/	8G/ 8c/ 8e/	.
8r	8r	8g/
8.r	8.r	4.e/
16C/	16G/ 16c/ 16e/	.
8C/	8G/ 8c/ 8e/	.
8r	8r	8a/
=8	=8	=8
8EE/	8G/ 8c/ 8g/	8.g/
8r	8r	.
.	.	16e/
*^	*	*
8.E/	8.AA\L	8.A/ 8.c/	8.c/
16G/	16GG\Jk	16B/ 16d/	16d/
8.G/	8.CC\L	8.c/ 8.e/	4e/
16G/	16C\Jk	16c/ 16e/	.
4G/	4C\	4c/ 4e/	8r
.	.	.	8e/
*v	*v	*	*
=9	=9	=9
8D\	8G/ 8B/ 8d/	8.d/
8r	8r	.
.	.	16c#/
8D\	8G/ 8B/ 8d/	8.d/
8r	8r	.
.	.	16e/
8D\	8G/ 8B/ 8d/	8f#/
8r	8r	8g/
8D\	8G/ 8B/ 8d/	8a/
8r	8r	8b\
=10	=10	=10
(2DD/ 2D/	2c/ [2d/ (2f#/	(4.b/
.	.	8a/)
8GG/)	&(8B/&) 8d/] 8g/)	4g/
8r	(16cc#\LL	.
.	16dd\JJ	.
4r	16ee\LL	4r
.	16ff#\	.
.	16gg\	.
.	16aa\JJ)	.
=11	=11	=11
8D\ 8G\ 8B\	(16bb\LL	2r
.	16gg\	.
8r	16dd\	.
.	16ee\JJ)	.
8D\ 8F#\ 8A\	(16dd^\LL	.
.	16cc\	.
8r	16a\	.
.	16b\JJ)	.
8GG/ 8BB/ 8D/ 8G/	8g/	4r
8r	8r	.
4r	4r	8r
.	.	8g/
=12	=12	=12
2.BBB/ 2.BB/	(16g/LL	8g/
.	16fn/	.
.	16d/	8g/
.	16G/JJ)	.
.	(16g/LL	8a/)
.	16f/	.
.	16d/	8g/
.	16G/JJ)	.
.	(16g/LL	4.dd^\
.	16f/	.
.	16d/	.
.	16G/JJ)	.
4r	(16g/LL	.
.	16f/	.
.	16d/	8f/
.	16G/JJ)	.
=13	=13	=13
2.CC/ 2.C/	(16g/LL	8.e/
.	16e/	.
.	16c/	.
.	16G/JJ)	16a/
.	(16g/LL	4g/
.	16e/	.
.	16c/	.
.	16G/JJ)	.
.	(16g/LL	8.r
.	16e/	.
.	16c/	.
.	16G/JJ)	16a/
4r	(16g/LL	8.g/
.	16e/	.
.	16c/	.
.	16G/JJ)	16cc\
=14	=14	=14
(2DD^/	(16g/LL	4.b\
.	16f/	.
.	16B/	.
.	16G/JJ)	.
.	(16g/LL	.
.	16f/	.
.	16B/	8b\
.	16G/JJ)	.
4EE/)	(16g/LL	8.dd^\
.	16e/	.
.	16c/	.
.	16G/JJ)	16cc\
4CC/	(16g/LL	8.g/
.	16e/	.
.	16c/	.
.	16G/JJ)	16e/
=15	=15	=15
4..GG/	(16g/LL	(8.d/L
.	16d/	.
.	16B/	.
.	16G/JJ)	32f/LL
.	.	32e/JJJ)
.	(16g/LL	4d/
.	16d/	.
.	16B/	.
16GGG/	16G/JJ)	.
4GGG/	(16g/LL	4r
.	16d/	.
.	16B/	.
.	16G/JJ)	.
4r	8g/	4g/
.	8r	.
=16	=16	=16
4AAA-/ 4AA-/	4c/ 4e-/ 4a-/ 4cc/	4.cc^\
4r	4r	.
.	.	16g/LL
.	.	16a-/JJ
4EE-/ 4E-/	4B-/ 4e-/ 4g/ 4b-/	4.b-^\
4r	4r	.
.	.	8e-/
=17	=17	=17
4FF/ 4F/	4A-/ 4c/ 4f/ 4a-/	8.a-/
.	.	16a-/
4r	4r	8.en/
.	.	16f/
4CC/ 4C/	4G/ 4c/ 4en/ 4g/	4g^/
4r	4r	8r
.	.	8g/
=18	=18	=18
(2BBBn/ 2BBn/	[2G/ 2d/ (2f/	8.g/
.	.	16g/
.	.	8.a/)
.	.	16g/
4CC/) 4C/	4G/] 4c/ 4e/)	8.ee\
.	.	16cc\
4r	4r	8.g/
.	.	16e/
=19	=19	=19
*^	*	*
2F/ 2B/	(2GG\	(2d/	(4.g/
.	.	.	8f/)
4E/	4AA\)	4c/)	4e/
4ryy	4r	4r	8r
.	.	.	8e/
*v	*v	*	*
=20	=20	=20
4FF/ 4F/	4A/ 4c/ 4d/	8.d/
.	.	16c#/
4r	4r	8.d/
.	.	16e/
2r	2r	8f/
.	.	8g/
.	.	8a/
.	.	8dd\)
=21	=21	=21
8.r	8.r	(2b^\
16GG/ 16G/LK	16dd\ 16gg\ 16bb\LK	.
8.GG/ 8.G/	8.dd\ 8.gg\ 8.bb\	.
16GG/ 16G/Jk	16dd\ 16gg\ 16bb\Jk	.
8C\ 8G\	8ee\ 8gg\ 8ccc\L	4cc\)
8r	(16ff#\L	.
.	16gg\JJ	.
4r	16aa\LL	4r
.	16bb\	.
.	16ccc\	.
.	16ddd\JJ)	.
=22	=22	=22
4C\ 4E\ 4G\	(16eee\LL	1r
.	16ccc\	.
.	16gg\	.
.	16ee\JJ	.
4..E^\ 4..G^\ 4..c^\	4.gg\)	.
.	(16ddd\LL	.
16AA/ 16C/ 16D/ 16F#/LK	16ccc\JJ	.
8.AA/ 8.C/ 8.D/ 8.F#/	16bb\LL	.
.	16aa\	.
.	16gg\	.
16AA/ 16C/ 16D/ 16F#/Jk	16ff#\JJ)	.
=23	=23	=23
8GG/ 8C/ 8E/ 8G/	(16gg\LL	2r
.	16ccc\	.
8r	16ee\	.
.	16aa\JJ)	.
8GG/ 8BB/ 8D/ 8G/	(16gg\LL	.
.	16ffn\	.
8r	16dd\	.
.	16ee\JJ)	.
4C\ 4E\ 4G\	4cc\	4r
8r	8r	8r
==:|!	==:|!	==:|!
*-	*-	*-
!!!ENC: Craig Stuart Sapp
!!!END: 2004/06/28/
!!!EFL: 148/651
